lib/healthicons/icons/solid/devices/blood_pressure.svg

<svg fill="none" height="48" viewBox="0 0 48 48" width="48" xmlns="http://www.w3.org/2000/svg"><g fill="#333"><path d="m6 18.7241c0-6.0832 4.0359-11.7241 9.5625-11.7241 3.8351 0 6.6809 2.53088 8.4375 6.1211 1.7565-3.58999 4.6022-6.1211 8.4375-6.1211 5.5272 0 9.5625 5.6419 9.5625 11.7241 0 1.0786-.1235 2.1313-.3501 3.155-1.9252-2.3669-4.861-3.8791-8.1499-3.8791-5.799 0-10.5 4.701-10.5 10.5 0 4.1537 2.4118 7.744 5.9115 9.447-2.7881 1.9612-4.9115 3.053-4.9115 3.053s-18-8.6955-18-22.2759z"/><path d="m36 29c0 1.1046-.8954 2-2 2s-2-.8954-2-2c0-.1188.0104-.2351.0302-.3482l-2.4194-2.4194 1.4143-1.4142 2.2989 2.2989c.2111-.0758.4387-.1171.676-.1171 1.1046 0 2 .8954 2 2z"/><path clip-rule="evenodd" d="m42 28.5c0 4.6944-3.8056 8.5-8.5 8.5s-8.5-3.8056-8.5-8.5 3.8056-8.5 8.5-8.5 8.5 3.8056 8.5 8.5zm-2 0c0 3.5899-2.9101 6.5-6.5 6.5s-6.5-2.9101-6.5-6.5 2.9101-6.5 6.5-6.5 6.5 2.9101 6.5 6.5z" fill-rule="evenodd"/></g></svg>

<svg width="48" height="48" viewBox="0 0 48 48" fill="none" xmlns="http://www.w3.org/2000/svg">
<path d="M6 18.7241C6 12.6409 10.0359 7 15.5625 7C19.3976 7 22.2434 9.53088 24 13.1211C25.7565 9.53111 28.6022 7 32.4375 7C37.9647 7 42 12.6419 42 18.7241C42 19.8027 41.8765 20.8554 41.6499 21.8791C39.7247 19.5122 36.7889 18 33.5 18C27.701 18 23 22.701 23 28.5C23 32.6537 25.4118 36.244 28.9115 37.947C26.1234 39.9082 24 41 24 41C24 41 6 32.3045 6 18.7241Z" fill="#333333"/>
<path d="M36 29C36 30.1046 35.1046 31 34 31C32.8954 31 32 30.1046 32 29C32 28.8812 32.0104 28.7649 32.0302 28.6518L29.6108 26.2324L31.0251 24.8182L33.324 27.1171C33.5351 27.0413 33.7627 27 34 27C35.1046 27 36 27.8954 36 29Z" fill="#333333"/>
<path fill-rule="evenodd" clip-rule="evenodd" d="M42 28.5C42 33.1944 38.1944 37 33.5 37C28.8056 37 25 33.1944 25 28.5C25 23.8056 28.8056 20 33.5 20C38.1944 20 42 23.8056 42 28.5ZM40 28.5C40 32.0899 37.0899 35 33.5 35C29.9101 35 27 32.0899 27 28.5C27 24.9101 29.9101 22 33.5 22C37.0899 22 40 24.9101 40 28.5Z" fill="#333333"/>
</svg>
